dist/img/blog/page-arrow.svg

<svg width="37" height="37" viewBox="0 0 37 37" fill="none" xmlns="http://www.w3.org/2000/svg">
<path d="M32.375 16.9583H10.5296L16.0487 11.4237L13.875 9.25L4.625 18.5L13.875 27.75L16.0487 25.5763L10.5296 20.0417H32.375V16.9583Z" fill="#8F8F8F"/>
</svg>

<svg width="37" height="37" fill="none" xmlns="http://www.w3.org/2000/svg"><path d="M32.375 16.958H10.53l5.519-5.534-2.174-2.174-9.25 9.25 9.25 9.25 2.174-2.174-5.52-5.534h21.846v-3.084Z" fill="#8F8F8F"/></svg>
